tools/download-figma-icons/icons/solid/bell.svg

<svg width="24" height="24" viewBox="0 0 24 24" fill="none" xmlns="http://www.w3.org/2000/svg">
<path fill-rule="evenodd" clip-rule="evenodd" d="M14.1201 1.96262C17.1696 2.8028 19.7617 5.64147 19.7617 10.3714C19.7617 10.3714 19.7614 14.7854 21.6173 17.5897C21.6173 17.5897 22.563 19.4825 20.6716 19.7973H3.32838C1.43696 19.4811 2.38267 17.5897 2.38267 17.5897C4.27409 14.751 4.27409 10.3714 4.27409 10.3714C4.27409 5.64147 6.86779 2.83853 9.9157 1.96262C9.9855 0.875917 10.897 0 12.0179 0C13.1388 0 14.0503 0.875917 14.1201 1.96262ZM15.1711 20.8468C15.1711 22.5986 13.7696 24.0001 12.0178 24.0001C10.2659 24.0001 8.86445 22.563 8.86445 20.8468H15.1711Z" fill="black"/>
</svg>

<svg xmlns="http://www.w3.org/2000/svg" width="24" height="24" fill="none" viewBox="0 0 24 24"><path fill="currentColor" fill-rule="evenodd" d="M14.12 1.963c3.05.84 5.642 3.678 5.642 8.408 0 0 0 4.414 1.855 7.219 0 0 .946 1.893-.945 2.207H3.328c-1.891-.316-.945-2.207-.945-2.207 1.891-2.839 1.891-7.219 1.891-7.219 0-4.73 2.594-7.532 5.642-8.408a2.107 2.107 0 0 1 4.204 0m1.051 18.884A3.14 3.14 0 0 1 12.018 24a3.163 3.163 0 0 1-3.154-3.153z" clip-rule="evenodd"/></svg>
